src/assets/logo.svg

<svg width="139" height="64" viewBox="0 0 139 64" fill="none" xmlns="http://www.w3.org/2000/svg">
<path d="M29.6309 33.0712H26.084V42.8524H24.123V33.0712H20.6074V31.4774H29.6309V33.0712ZM34.6855 42.8524C34.6022 42.691 34.5293 42.428 34.4668 42.0634C33.8626 42.6936 33.123 43.0087 32.248 43.0087C31.3991 43.0087 30.7064 42.7665 30.1699 42.2821C29.6335 41.7978 29.3652 41.1988 29.3652 40.4853C29.3652 39.5842 29.6986 38.8941 30.3652 38.4149C31.0371 37.9306 31.9954 37.6884 33.2402 37.6884H34.4043V37.1337C34.4043 36.6962 34.2819 36.3472 34.0371 36.0868C33.7923 35.8212 33.4199 35.6884 32.9199 35.6884C32.4876 35.6884 32.1335 35.7978 31.8574 36.0165C31.5814 36.2301 31.4434 36.5035 31.4434 36.8368H29.5449C29.5449 36.3733 29.6986 35.941 30.0059 35.5399C30.3132 35.1337 30.7298 34.816 31.2559 34.5868C31.7871 34.3577 32.3783 34.2431 33.0293 34.2431C34.0189 34.2431 34.8079 34.4931 35.3965 34.9931C35.985 35.4879 36.2871 36.1858 36.3027 37.0868V40.8993C36.3027 41.6597 36.4095 42.2665 36.623 42.7196V42.8524H34.6855ZM32.5996 41.4853C32.9746 41.4853 33.3262 41.3941 33.6543 41.2118C33.9876 41.0295 34.2376 40.7847 34.4043 40.4774V38.8837H33.3809C32.6777 38.8837 32.1491 39.0061 31.7949 39.2509C31.4408 39.4957 31.2637 39.842 31.2637 40.2899C31.2637 40.6545 31.3835 40.9462 31.623 41.1649C31.8678 41.3785 32.1934 41.4853 32.5996 41.4853ZM40.0527 34.3993L40.1074 35.3759C40.7324 34.6207 41.5527 34.2431 42.5684 34.2431C44.3288 34.2431 45.2246 35.2509 45.2559 37.2665V42.8524H43.3574V37.3759C43.3574 36.8394 43.2402 36.4436 43.0059 36.1884C42.7767 35.928 42.3991 35.7978 41.873 35.7978C41.1074 35.7978 40.5371 36.1441 40.1621 36.8368V42.8524H38.2637V34.3993H40.0527ZM46.8418 38.5634C46.8418 37.2613 47.1439 36.217 47.748 35.4306C48.3522 34.6389 49.1621 34.2431 50.1777 34.2431C51.0736 34.2431 51.7975 34.5556 52.3496 35.1806V30.8524H54.248V42.8524H52.5293L52.4355 41.9774C51.8678 42.6649 51.11 43.0087 50.1621 43.0087C49.1725 43.0087 48.3704 42.6103 47.7559 41.8134C47.1465 41.0165 46.8418 39.9332 46.8418 38.5634ZM48.7402 38.7274C48.7402 39.5868 48.9043 40.2587 49.2324 40.7431C49.5658 41.2222 50.0371 41.4618 50.6465 41.4618C51.4225 41.4618 51.9902 41.1155 52.3496 40.4228V36.8134C52.0007 36.1363 51.4382 35.7978 50.6621 35.7978C50.0475 35.7978 49.5736 36.0426 49.2402 36.5321C48.9069 37.0165 48.7402 37.7483 48.7402 38.7274ZM58.248 42.8524H56.3496V30.8524H58.248V42.8524ZM69.1465 43.0087C67.8288 43.0087 66.8053 42.5894 66.0762 41.7509C65.7376 42.1519 65.2897 42.4618 64.7324 42.6806C64.1751 42.8993 63.5475 43.0087 62.8496 43.0087C61.9329 43.0087 61.2142 42.7795 60.6934 42.3212C60.1725 41.8629 59.9121 41.2274 59.9121 40.4149C59.9121 39.592 60.222 38.9566 60.8418 38.5087C61.4616 38.0608 62.3783 37.8368 63.5918 37.8368H65.084V37.2821C65.084 36.8082 64.959 36.4384 64.709 36.1728C64.4642 35.9019 64.1126 35.7665 63.6543 35.7665C63.1803 35.7665 62.7923 35.8837 62.4902 36.1181C62.1934 36.3472 62.0449 36.6337 62.0449 36.9774L60.1543 36.829C60.1543 36.0686 60.4824 35.4488 61.1387 34.9696C61.8001 34.4853 62.6439 34.2431 63.6699 34.2431C64.8314 34.2431 65.7012 34.5894 66.2793 35.2821C66.9616 34.579 67.8236 34.2327 68.8652 34.2431C69.9694 34.2431 70.8314 34.5816 71.4512 35.2587C72.071 35.9306 72.3809 36.8785 72.3809 38.1024V39.1728H66.9512C66.998 39.8967 67.2194 40.4644 67.6152 40.8759C68.0111 41.2873 68.5579 41.4931 69.2559 41.4931C69.9694 41.4931 70.6048 41.342 71.1621 41.0399L71.6387 40.7743L72.209 42.0712C71.8444 42.3629 71.3887 42.592 70.8418 42.7587C70.3001 42.9254 69.735 43.0087 69.1465 43.0087ZM63.2168 41.5712C63.5189 41.5712 63.847 41.4957 64.2012 41.3446C64.5553 41.1884 64.8496 40.9983 65.084 40.7743V39.1415H63.5527C63.0111 39.1519 62.584 39.2821 62.2715 39.5321C61.959 39.7769 61.8027 40.0816 61.8027 40.4462C61.8027 40.7847 61.9225 41.0582 62.1621 41.2665C62.4069 41.4696 62.7585 41.5712 63.2168 41.5712ZM68.8652 35.7665C68.3496 35.7665 67.9251 35.9462 67.5918 36.3056C67.2637 36.6649 67.0579 37.1754 66.9746 37.8368H70.5059V37.6024C70.5059 37.0139 70.3626 36.5608 70.0762 36.2431C69.7949 35.9254 69.3913 35.7665 68.8652 35.7665ZM73.5059 38.5634C73.5059 37.2509 73.8132 36.204 74.4277 35.4228C75.0475 34.6363 75.8678 34.2431 76.8887 34.2431C77.8522 34.2431 78.61 34.579 79.1621 35.2509L79.248 34.3993H80.959V42.5946C80.959 43.704 80.6126 44.579 79.9199 45.2196C79.2324 45.8603 78.3027 46.1806 77.1309 46.1806C76.5111 46.1806 75.9043 46.0504 75.3105 45.7899C74.722 45.5347 74.2741 45.1988 73.9668 44.7821L74.8652 43.6415C75.4486 44.3342 76.1673 44.6806 77.0215 44.6806C77.6517 44.6806 78.1491 44.5087 78.5137 44.1649C78.8783 43.8264 79.0605 43.3264 79.0605 42.6649V42.0946C78.5137 42.704 77.7845 43.0087 76.873 43.0087C75.8835 43.0087 75.0736 42.6155 74.4434 41.829C73.8184 41.0426 73.5059 39.954 73.5059 38.5634ZM75.3965 38.7274C75.3965 39.5764 75.5684 40.2457 75.9121 40.7353C76.2611 41.2196 76.7428 41.4618 77.3574 41.4618C78.123 41.4618 78.6908 41.1337 79.0605 40.4774V36.7587C78.7012 36.1181 78.1387 35.7978 77.373 35.7978C76.748 35.7978 76.2611 36.0452 75.9121 36.5399C75.5684 37.0347 75.3965 37.7639 75.3965 38.7274ZM86.6387 43.0087C85.4355 43.0087 84.459 42.6311 83.709 41.8759C82.9642 41.1155 82.5918 40.1051 82.5918 38.8446V38.6103C82.5918 37.7665 82.7533 37.0139 83.0762 36.3524C83.4043 35.6858 83.8626 35.1676 84.4512 34.7978C85.0397 34.428 85.696 34.2431 86.4199 34.2431C87.571 34.2431 88.459 34.6103 89.084 35.3446C89.7142 36.079 90.0293 37.1181 90.0293 38.4618V39.2274H84.5059C84.5632 39.9254 84.7949 40.4774 85.2012 40.8837C85.6126 41.2899 86.1283 41.4931 86.748 41.4931C87.6178 41.4931 88.3262 41.1415 88.873 40.4384L89.8965 41.4149C89.5579 41.9202 89.1048 42.3134 88.5371 42.5946C87.9746 42.8707 87.3418 43.0087 86.6387 43.0087ZM86.4121 35.7665C85.8913 35.7665 85.4694 35.9488 85.1465 36.3134C84.8288 36.678 84.6257 37.1858 84.5371 37.8368H88.1543V37.6962C88.1126 37.0608 87.9434 36.5816 87.6465 36.2587C87.3496 35.9306 86.9382 35.7665 86.4121 35.7665ZM93.3809 35.3212C94.0007 34.6024 94.7845 34.2431 95.7324 34.2431C97.5345 34.2431 98.4486 35.2717 98.4746 37.329V42.8524H96.5762V37.3993C96.5762 36.816 96.4486 36.4045 96.1934 36.1649C95.9434 35.9202 95.5736 35.7978 95.084 35.7978C94.3236 35.7978 93.7559 36.1363 93.3809 36.8134V42.8524H91.4824V30.8524H93.3809V35.3212ZM105.521 42.0243C104.964 42.6806 104.173 43.0087 103.146 43.0087C102.23 43.0087 101.535 42.7405 101.061 42.204C100.592 41.6676 100.357 40.8915 100.357 39.8759V34.3993H102.256V39.8524C102.256 40.9254 102.701 41.4618 103.592 41.4618C104.514 41.4618 105.136 41.1311 105.459 40.4696V34.3993H107.357V42.8524H105.568L105.521 42.0243ZM114.029 40.5556C114.029 40.217 113.889 39.9592 113.607 39.7821C113.331 39.6051 112.87 39.4488 112.225 39.3134C111.579 39.178 111.04 39.0061 110.607 38.7978C109.66 38.3394 109.186 37.6754 109.186 36.8056C109.186 36.0764 109.493 35.467 110.107 34.9774C110.722 34.4879 111.503 34.2431 112.451 34.2431C113.462 34.2431 114.277 34.4931 114.896 34.9931C115.521 35.4931 115.834 36.1415 115.834 36.9384H113.936C113.936 36.5738 113.8 36.2717 113.529 36.0321C113.258 35.7873 112.899 35.6649 112.451 35.6649C112.035 35.6649 111.693 35.7613 111.428 35.954C111.167 36.1467 111.037 36.4045 111.037 36.7274C111.037 37.0191 111.16 37.2457 111.404 37.4071C111.649 37.5686 112.144 37.7327 112.889 37.8993C113.633 38.0608 114.217 38.2561 114.639 38.4853C115.066 38.7092 115.381 38.9801 115.584 39.2978C115.792 39.6155 115.896 40.0009 115.896 40.454C115.896 41.2144 115.581 41.8316 114.951 42.3056C114.321 42.7743 113.495 43.0087 112.475 43.0087C111.782 43.0087 111.165 42.8837 110.623 42.6337C110.081 42.3837 109.66 42.0399 109.357 41.6024C109.055 41.1649 108.904 40.6936 108.904 40.1884H110.748C110.774 40.6363 110.943 40.9827 111.256 41.2274C111.568 41.467 111.982 41.5868 112.498 41.5868C112.998 41.5868 113.378 41.4931 113.639 41.3056C113.899 41.1129 114.029 40.8629 114.029 40.5556ZM121.279 43.0087C120.076 43.0087 119.1 42.6311 118.35 41.8759C117.605 41.1155 117.232 40.1051 117.232 38.8446V38.6103C117.232 37.7665 117.394 37.0139 117.717 36.3524C118.045 35.6858 118.503 35.1676 119.092 34.7978C119.68 34.428 120.337 34.2431 121.061 34.2431C122.212 34.2431 123.1 34.6103 123.725 35.3446C124.355 36.079 124.67 37.1181 124.67 38.4618V39.2274H119.146C119.204 39.9254 119.436 40.4774 119.842 40.8837C120.253 41.2899 120.769 41.4931 121.389 41.4931C122.258 41.4931 122.967 41.1415 123.514 40.4384L124.537 41.4149C124.199 41.9202 123.745 42.3134 123.178 42.5946C122.615 42.8707 121.982 43.0087 121.279 43.0087ZM121.053 35.7665C120.532 35.7665 120.11 35.9488 119.787 36.3134C119.469 36.678 119.266 37.1858 119.178 37.8368H122.795V37.6962C122.753 37.0608 122.584 36.5816 122.287 36.2587C121.99 35.9306 121.579 35.7665 121.053 35.7665ZM128.529 32.3446V34.3993H130.021V35.8056H128.529V40.5243C128.529 40.8472 128.592 41.0816 128.717 41.2274C128.847 41.3681 129.076 41.4384 129.404 41.4384C129.623 41.4384 129.844 41.4123 130.068 41.3603V42.829C129.636 42.9488 129.219 43.0087 128.818 43.0087C127.36 43.0087 126.631 42.204 126.631 40.5946V35.8056H125.24V34.3993H126.631V32.3446H128.529Z" fill="#666666"/>
<path d="M6.88372 1H12.7674L16.5116 2.03279L19.7209 4.09836L14.3721 4.61475L9.55814 4.09836L7.4186 6.68033L6.88372 9.77869L12.2326 20.1066V21.1393V26.8197L11.6977 27.8525L9.02326 35.5984V40.2459L8.48837 44.8934L9.55814 46.959L10.093 50.0574H9.55814L7.4186 48.5082L5.81395 46.4426V44.3771V37.1475L6.88372 31.4672L7.95349 27.3361V24.7541V23.2049V21.6557L6.88372 19.5902L3.67442 14.9426L1.53488 9.2623L1 7.19672L1.53488 5.13115L3.13953 2.54918L6.88372 1Z" fill="#C4A060" stroke="#C4A060" stroke-width="0.5" stroke-linejoin="round"/>
<path d="M30.9535 28.8853L29.8838 29.4017L28.2791 27.3361L27.2093 24.2377L26.6745 21.6558L27.7442 19.0738L31.4884 13.3935L32.0233 9.77871L29.3489 8.22953L25.0698 7.71313H20.2559L22.3954 6.16395L24.5349 5.13116H30.9535L33.628 5.64756L35.7675 6.68035L37.3721 8.22953L37.907 9.77871L37.3721 11.3279L35.2326 13.9099L33.628 15.9754L32.5582 17.5246L31.4884 19.0738L30.9535 20.623V28.8853Z" fill="#C4A060" stroke="#C4A060" stroke-width="0.5" stroke-linejoin="round"/>
<path d="M16.5116 32.5L18.1163 31.9836V33.0164V34.0492L13.8372 42.3115V45.4098V46.959L13.3023 48.5082L12.2326 50.0574L11.6977 47.4754V44.8934V42.3115L12.7675 39.2131L16.5116 32.5Z" fill="#C4A060"/>
<path d="M12.2326 50.0574L11.6977 47.4754V44.8934V42.3115L12.7675 39.2131L16.5116 32.5L18.1163 31.9836V33.0164V34.0492L13.8372 42.3115V45.4098M12.2326 50.0574L12.7675 48.5082L13.8372 45.4098M12.2326 50.0574L13.3023 48.5082L13.8372 46.959V45.4098" stroke="#C4A060" stroke-width="0.5" stroke-linejoin="round"/>
<path d="M81.2576 59.4754H80.0833V52.6072H81.2576V59.4754ZM79.988 50.7855C79.988 50.595 80.0452 50.4342 80.1594 50.303C80.2779 50.1719 80.4514 50.1063 80.6799 50.1063C80.9084 50.1063 81.0819 50.1719 81.2004 50.303C81.3189 50.4342 81.3782 50.595 81.3782 50.7855C81.3782 50.9759 81.3189 51.1346 81.2004 51.2615C81.0819 51.3885 80.9084 51.452 80.6799 51.452C80.4514 51.452 80.2779 51.3885 80.1594 51.2615C80.0452 51.1346 79.988 50.9759 79.988 50.7855ZM93.6545 59.4754H92.4294V55.2034H87.7703V59.4754H86.5515V50.2332H87.7703V54.2068H92.4294V50.2332H93.6545V59.4754ZM99.8752 59.4754C99.8075 59.34 99.7525 59.0988 99.7102 58.7518C99.1643 59.3188 98.5126 59.6024 97.7551 59.6024C97.078 59.6024 96.5216 59.4119 96.0857 59.0311C95.6541 58.646 95.4382 58.1593 95.4382 57.5711C95.4382 56.8559 95.7091 56.3016 96.2507 55.908C96.7966 55.5102 97.5626 55.3113 98.5486 55.3113H99.6912V54.7718C99.6912 54.3613 99.5684 54.0355 99.323 53.7943C99.0776 53.5488 98.7157 53.4261 98.2375 53.4261C97.8186 53.4261 97.4674 53.5319 97.1838 53.7435C96.9003 53.9551 96.7585 54.2111 96.7585 54.5115H95.5779C95.5779 54.1688 95.6985 53.8387 95.9397 53.5213C96.1851 53.1997 96.5152 52.9458 96.9299 52.7596C97.3489 52.5734 97.808 52.4803 98.3074 52.4803C99.0987 52.4803 99.7187 52.6792 100.167 53.077C100.616 53.4705 100.849 54.0143 100.865 54.7083V57.8694C100.865 58.5 100.946 59.0014 101.107 59.3738V59.4754H99.8752ZM97.9265 58.5804C98.2947 58.5804 98.6438 58.4852 98.9739 58.2947C99.304 58.1043 99.5431 57.8568 99.6912 57.5521V56.1429H98.7708C97.3319 56.1429 96.6125 56.5639 96.6125 57.4061C96.6125 57.7742 96.7353 58.062 96.9807 58.2693C97.2262 58.4767 97.5414 58.5804 97.9265 58.5804ZM104.871 57.8821L106.572 52.6072H107.772L105.309 59.4754H104.414L101.926 52.6072H103.125L104.871 57.8821ZM108.527 55.9842C108.527 54.9305 108.777 54.0841 109.276 53.4451C109.775 52.8019 110.429 52.4803 111.238 52.4803C112.042 52.4803 112.678 52.7554 113.148 53.3055V49.7254H114.323V59.4754H113.243L113.186 58.7391C112.717 59.3146 112.063 59.6024 111.225 59.6024C110.429 59.6024 109.78 59.2765 109.276 58.6248C108.777 57.9731 108.527 57.1225 108.527 56.0731V55.9842ZM109.701 56.1175C109.701 56.8961 109.862 57.5055 110.184 57.9456C110.505 58.3857 110.95 58.6058 111.517 58.6058C112.262 58.6058 112.805 58.2715 113.148 57.6028V54.4481C112.797 53.8006 112.257 53.4769 111.53 53.4769C110.954 53.4769 110.505 53.699 110.184 54.1434C109.862 54.5877 109.701 55.2457 109.701 56.1175ZM119.47 53.6609C119.293 53.6313 119.1 53.6165 118.893 53.6165C118.123 53.6165 117.6 53.9445 117.325 54.6004V59.4754H116.151V52.6072H117.293L117.312 53.4007C117.697 52.7871 118.243 52.4803 118.95 52.4803C119.178 52.4803 119.352 52.5099 119.47 52.5692V53.6609ZM124.796 58.7962C124.339 59.3336 123.668 59.6024 122.784 59.6024C122.052 59.6024 121.493 59.3908 121.108 58.9676C120.727 58.5402 120.535 57.9096 120.531 57.076V52.6072H121.705V57.0443C121.705 58.0853 122.128 58.6058 122.974 58.6058C123.872 58.6058 124.468 58.2715 124.764 57.6028V52.6072H125.939V59.4754H124.822L124.796 58.7962ZM133.531 56.1175C133.531 57.1627 133.291 58.0049 132.813 58.6439C132.335 59.2829 131.688 59.6024 130.871 59.6024C130.037 59.6024 129.381 59.3379 128.903 58.8089V62.116H127.729V52.6072H128.802L128.859 53.369C129.337 52.7765 130.001 52.4803 130.852 52.4803C131.677 52.4803 132.329 52.7913 132.807 53.4134C133.289 54.0355 133.531 54.9009 133.531 56.0096V56.1175ZM132.356 55.9842C132.356 55.2098 132.191 54.5983 131.861 54.1497C131.531 53.7012 131.078 53.4769 130.503 53.4769C129.792 53.4769 129.259 53.7921 128.903 54.4227V57.7044C129.254 58.3307 129.792 58.6439 130.515 58.6439C131.078 58.6439 131.525 58.4217 131.855 57.9774C132.189 57.5288 132.356 56.8644 132.356 55.9842Z" fill="#C4A060"/>
</svg>

<svg width="139" height="64" fill="none" xmlns="http://www.w3.org/2000/svg"><path d="M29.63 33.071h-3.546v9.781h-1.961v-9.78h-3.516v-1.595h9.024v1.594zm5.055 9.781c-.083-.161-.156-.424-.218-.789a2.955 2.955 0 0 1-2.219.946c-.849 0-1.542-.242-2.078-.727-.537-.484-.805-1.083-.805-1.797 0-.9.334-1.59 1-2.07.672-.484 1.63-.727 2.875-.727h1.164v-.554c0-.438-.122-.787-.367-1.047-.245-.266-.617-.399-1.117-.399-.432 0-.787.11-1.063.328a.993.993 0 0 0-.414.82h-1.898c0-.463.154-.895.46-1.296.308-.406.725-.724 1.25-.953a4.433 4.433 0 0 1 1.774-.344c.99 0 1.779.25 2.367.75.589.495.891 1.193.907 2.094v3.812c0 .76.107 1.367.32 1.82v.133h-1.938zM32.6 41.485c.375 0 .726-.09 1.054-.273.334-.183.584-.427.75-.735v-1.593h-1.023c-.703 0-1.232.122-1.586.367-.354.245-.531.591-.531 1.039 0 .364.12.656.359.875.245.214.57.32.977.32zm7.453-7.086l.054.977c.625-.755 1.446-1.133 2.461-1.133 1.76 0 2.657 1.008 2.688 3.023v5.586h-1.899v-5.476c0-.537-.117-.932-.351-1.188-.23-.26-.607-.39-1.133-.39-.766 0-1.336.346-1.71 1.039v6.015h-1.9V34.4h1.79zm6.789 4.164c0-1.302.302-2.346.906-3.132.604-.792 1.414-1.188 2.43-1.188.896 0 1.62.313 2.172.938v-4.329h1.898v12h-1.719l-.094-.875c-.567.688-1.325 1.032-2.273 1.032-.99 0-1.792-.399-2.406-1.196-.61-.797-.914-1.88-.914-3.25zm1.898.164c0 .86.164 1.532.492 2.016.334.48.805.719 1.415.719.776 0 1.343-.347 1.703-1.04v-3.609c-.35-.677-.912-1.015-1.688-1.015-.614 0-1.088.245-1.422.734-.333.485-.5 1.216-.5 2.195zm9.508 4.125H56.35v-12h1.898v12zm10.899.157c-1.318 0-2.342-.42-3.07-1.258-.34.4-.787.71-1.345.93-.557.218-1.184.328-1.882.328-.917 0-1.636-.23-2.157-.688-.52-.458-.78-1.094-.78-1.906 0-.823.309-1.458.929-1.906.62-.448 1.536-.672 2.75-.672h1.492v-.555c0-.474-.125-.844-.375-1.11-.245-.27-.596-.405-1.055-.405-.474 0-.862.117-1.164.351-.297.23-.445.516-.445.86l-1.89-.149c0-.76.327-1.38.984-1.86.661-.484 1.505-.726 2.53-.726 1.162 0 2.032.346 2.61 1.04.683-.704 1.545-1.05 2.586-1.04 1.104 0 1.966.339 2.586 1.016.62.672.93 1.62.93 2.843v1.07h-5.43c.047.725.268 1.292.664 1.704.396.411.943.617 1.64.617.714 0 1.35-.151 1.907-.453l.477-.266.57 1.297c-.365.292-.82.521-1.367.688a5.731 5.731 0 0 1-1.695.25zm-5.93-1.438c.302 0 .63-.075.984-.226.354-.157.649-.347.883-.57v-1.633h-1.531c-.542.01-.969.14-1.281.39-.313.245-.47.55-.47.914 0 .339.12.612.36.82.245.204.596.305 1.055.305zm5.648-5.804c-.515 0-.94.18-1.273.539-.328.359-.534.87-.617 1.53h3.53v-.234c0-.588-.142-1.041-.429-1.359-.281-.318-.685-.477-1.21-.477zm4.64 2.796c0-1.312.308-2.359.923-3.14.62-.787 1.44-1.18 2.46-1.18.964 0 1.722.336 2.274 1.008l.086-.852h1.711v8.196c0 1.109-.346 1.984-1.04 2.625-.687.64-1.616.96-2.788.96a4.49 4.49 0 0 1-1.82-.39c-.589-.255-1.037-.591-1.344-1.008l.898-1.14c.584.692 1.302 1.039 2.157 1.039.63 0 1.127-.172 1.492-.516.364-.339.547-.839.547-1.5v-.57c-.547.609-1.277.914-2.188.914-.99 0-1.8-.394-2.43-1.18-.625-.786-.937-1.875-.937-3.266zm1.892.164c0 .85.171 1.519.515 2.008.35.485.83.727 1.445.727.766 0 1.334-.328 1.704-.985V36.76c-.36-.64-.922-.961-1.688-.961-.625 0-1.112.247-1.46.742-.345.495-.516 1.224-.516 2.187zm11.242 4.282c-1.203 0-2.18-.378-2.93-1.133-.745-.76-1.117-1.77-1.117-3.031v-.235c0-.843.161-1.596.484-2.258a3.737 3.737 0 0 1 1.375-1.554 3.625 3.625 0 0 1 1.969-.555c1.151 0 2.039.367 2.664 1.102.63.734.945 1.773.945 3.117v.765h-5.523c.057.698.289 1.25.695 1.657.412.406.927.61 1.547.61.87 0 1.578-.352 2.125-1.056l1.023.977a3.44 3.44 0 0 1-1.359 1.18c-.562.276-1.195.414-1.898.414zm-.227-7.242c-.52 0-.943.182-1.266.546-.317.365-.52.873-.609 1.524h3.617v-.14c-.041-.636-.21-1.115-.507-1.438-.297-.328-.709-.492-1.235-.492zm6.969-.446c.62-.719 1.403-1.078 2.351-1.078 1.802 0 2.717 1.029 2.743 3.086v5.523h-1.899V37.4c0-.583-.127-.995-.383-1.234-.25-.245-.62-.367-1.109-.367-.76 0-1.328.338-1.703 1.015v6.04h-1.899v-12h1.899v4.468zm12.14 6.703c-.557.657-1.348.985-2.375.985-.916 0-1.611-.269-2.085-.805-.469-.536-.704-1.313-.704-2.328v-5.477h1.899v5.453c0 1.073.445 1.61 1.336 1.61.922 0 1.544-.33 1.867-.992V34.4h1.898v8.452h-1.789l-.047-.828zm8.508-1.468a.857.857 0 0 0-.422-.774c-.276-.177-.737-.333-1.382-.469-.646-.135-1.185-.307-1.618-.515-.947-.459-1.421-1.123-1.421-1.992 0-.73.307-1.339.921-1.829.615-.49 1.396-.734 2.344-.734 1.011 0 1.826.25 2.445.75.625.5.938 1.148.938 1.945h-1.898c0-.364-.136-.666-.407-.906-.271-.245-.63-.367-1.078-.367-.416 0-.758.096-1.023.289a.913.913 0 0 0-.391.773.77.77 0 0 0 .367.68c.245.162.74.326 1.485.492.744.162 1.328.357 1.75.586.427.224.742.495.945.813.208.317.312.703.312 1.156 0 .76-.315 1.378-.945 1.852-.63.468-1.456.703-2.476.703-.693 0-1.31-.125-1.852-.375s-.963-.594-1.266-1.032a2.441 2.441 0 0 1-.453-1.414h1.844c.026.448.195.795.508 1.04.312.239.726.359 1.242.359.5 0 .88-.094 1.141-.281a.893.893 0 0 0 .39-.75zm7.25 2.453c-1.203 0-2.179-.378-2.929-1.133-.745-.76-1.118-1.77-1.118-3.031v-.235c0-.843.162-1.596.485-2.258.328-.666.786-1.184 1.375-1.554a3.624 3.624 0 0 1 1.969-.555c1.151 0 2.039.367 2.664 1.102.63.734.945 1.773.945 3.117v.765h-5.524c.058.698.29 1.25.696 1.657.411.406.927.61 1.547.61.869 0 1.578-.352 2.125-1.056l1.023.977a3.44 3.44 0 0 1-1.359 1.18c-.563.276-1.196.414-1.899.414zm-.226-7.242c-.521 0-.943.182-1.266.546-.318.365-.521.873-.609 1.524h3.617v-.14c-.042-.636-.211-1.115-.508-1.438-.297-.328-.708-.492-1.234-.492zm7.476-3.422v2.054h1.492v1.407h-1.492v4.718c0 .323.063.558.188.703.13.141.359.211.687.211.219 0 .44-.026.664-.078v1.469c-.432.12-.849.18-1.25.18-1.458 0-2.187-.805-2.187-2.414v-4.79h-1.391V34.4h1.391v-2.054h1.898z" fill="#666"/><path d="M6.884 1h5.883l3.745 1.033 3.209 2.065-5.349.517-4.814-.517-2.14 2.582-.534 3.099 5.349 10.328v6.712l-.535 1.034-2.675 7.745v4.648l-.535 4.647 1.07 2.066.535 3.098h-.535l-2.14-1.549-1.604-2.065v-9.296l1.07-5.68 1.07-4.13v-5.681l-1.07-2.066-3.21-4.647-2.14-5.68L1 7.196l.535-2.066L3.14 2.55 6.884 1zM30.953 28.885l-1.07.517-1.604-2.066-1.07-3.098-.535-2.582 1.07-2.582 3.744-5.68.535-3.615-2.674-1.55-4.28-.516h-4.813l2.14-1.55 2.139-1.032h6.418l2.675.517 2.14 1.032 1.604 1.55.535 1.549-.535 1.549-2.14 2.582-1.604 2.065-1.07 1.55-1.07 1.549-.535 1.549v8.262z" fill="#C4A060" stroke="#C4A060" stroke-width=".5" stroke-linejoin="round"/><path d="M16.512 32.5l1.604-.516v2.065l-4.279 8.263v4.647l-.535 1.55-1.07 1.548-.534-2.582v-5.163l1.07-3.099 3.744-6.713z" fill="#C4A060"/><path d="M12.233 50.057l-.535-2.582v-5.163l1.07-3.099 3.744-6.713 1.604-.516v2.065l-4.279 8.263v3.098m-1.604 4.647l.534-1.549 1.07-3.098m-1.604 4.647l1.07-1.549.534-1.549v-1.55" stroke="#C4A060" stroke-width=".5" stroke-linejoin="round"/><path d="M81.258 59.475h-1.175v-6.868h1.175v6.868zm-1.27-8.69a.71.71 0 0 1 .171-.482c.119-.131.292-.197.52-.197.23 0 .403.066.521.197a.694.694 0 0 1 .178.483c0 .19-.06.349-.178.475-.118.127-.292.191-.52.191-.229 0-.402-.063-.52-.19a.685.685 0 0 1-.172-.477zm13.666 8.69H92.43v-4.272H87.77v4.272h-1.218v-9.242h1.218v3.974h4.66v-3.974h1.224v9.242zm6.221 0c-.067-.135-.123-.376-.165-.723-.546.567-1.197.85-1.955.85-.677 0-1.233-.19-1.67-.57a1.872 1.872 0 0 1-.647-1.46c0-.716.271-1.27.813-1.664.546-.398 1.312-.597 2.298-.597h1.142v-.54c0-.41-.123-.736-.368-.977-.245-.245-.607-.368-1.085-.368-.42 0-.77.106-1.054.317-.284.212-.425.468-.425.768h-1.181c0-.342.12-.672.362-.99.245-.321.575-.575.99-.761.419-.187.878-.28 1.377-.28.792 0 1.412.2 1.86.597.449.394.682.937.698 1.631v3.161c0 .631.081 1.132.242 1.505v.101h-1.232zm-1.948-.895c.368 0 .717-.095 1.047-.285.33-.19.57-.438.717-.743v-1.41h-.92c-1.44 0-2.159.422-2.159 1.264 0 .368.123.656.369.863.245.208.56.311.946.311zm6.944-.698l1.701-5.275h1.2l-2.463 6.868h-.895l-2.488-6.868h1.199l1.746 5.275zm3.656-1.898c0-1.053.25-1.9.749-2.539.499-.643 1.153-.965 1.962-.965.804 0 1.44.275 1.91.826v-3.58h1.175v9.75h-1.08l-.057-.737c-.469.576-1.123.863-1.961.863-.796 0-1.445-.325-1.949-.977-.499-.652-.749-1.502-.749-2.552v-.089zm1.174.133c0 .78.161 1.389.483 1.829.321.44.766.66 1.333.66.745 0 1.288-.334 1.631-1.003v-3.155c-.351-.647-.891-.971-1.618-.971-.576 0-1.025.222-1.346.666-.322.445-.483 1.103-.483 1.974zm9.769-2.456a3.51 3.51 0 0 0-.577-.044c-.77 0-1.293.328-1.568.983v4.875h-1.174v-6.868h1.142l.019.794c.385-.614.931-.92 1.638-.92.228 0 .402.029.52.088v1.092zm5.326 5.135c-.457.538-1.128.806-2.012.806-.732 0-1.291-.211-1.676-.634-.381-.428-.573-1.058-.577-1.892v-4.469h1.174v4.437c0 1.041.423 1.562 1.269 1.562.898 0 1.494-.334 1.79-1.003v-4.996h1.175v6.868h-1.117l-.026-.679zm8.735-2.678c0 1.045-.24 1.887-.718 2.526-.478.639-1.125.958-1.942.958-.834 0-1.49-.264-1.968-.793v3.307h-1.174v-9.509h1.073l.057.762c.478-.593 1.142-.889 1.993-.889.825 0 1.477.311 1.955.933.482.623.724 1.488.724 2.597v.108zm-1.175-.134c0-.774-.165-1.386-.495-1.834-.33-.449-.783-.673-1.358-.673-.711 0-1.244.315-1.6.946v3.281c.351.627.889.94 1.612.94.563 0 1.01-.222 1.34-.667.334-.448.501-1.113.501-1.993z" fill="#C4A060"/></svg>
